assets/Camping/Flat/camping_flat.svg

<svg width="32" height="32" viewBox="0 0 32 32" fill="none" xmlns="http://www.w3.org/2000/svg">
<path d="M26.99 30H5.00999C3.34999 30 2 28.651 2 26.9923V18.9985C2 17.8993 2.89 17 4 17H28C29.1 17 30 17.8893 30 18.9985V26.9923C29.99 28.651 28.65 30 26.99 30Z" fill="#608842"/>
<rect x="22.0054" y="14.8491" width="2.99908" height="4.14536" rx="0.2" fill="#8C5543"/>
<path d="M26.4645 4.83594C26.3689 3.2623 25.0624 2.01562 23.4647 2.01562C21.8223 2.01562 20.4875 3.33312 20.4597 4.96892C20.4429 5.0891 20.4119 5.20055 20.3005 5.25443C18.9304 5.53422 17.8997 6.74624 17.8997 8.19902C17.8997 8.57729 17.9695 8.93924 18.0971 9.27266C18.0987 9.2824 18.1019 9.29327 18.107 9.30536C18.1676 9.44853 18.1274 9.62049 18.0283 9.74181C17.3981 10.2927 17 11.1026 17 12.0054C17 13.6486 18.3186 14.9837 19.9554 15.0104L19.9897 15.0108C19.995 15.0108 20.0002 15.0108 20.0054 15.0108C20.0106 15.0108 20.0159 15.0108 20.0211 15.0108H27.0365C27.0417 15.0108 27.0469 15.0108 27.0522 15.0108C27.0574 15.0108 27.0626 15.0108 27.0678 15.0108H27.0756C28.7247 14.9982 30.0576 13.6574 30.0576 12.0054C30.0576 11.0809 29.6401 10.2538 28.9834 9.70253C28.8138 9.52602 28.8548 9.28874 28.9043 9.11646C28.9125 9.09075 28.9204 9.0649 28.928 9.0389L28.9325 9.02452C28.9417 9.0062 28.9463 8.98808 28.947 8.97048C29.0122 8.72429 29.0469 8.46571 29.0469 8.19902C29.0469 6.77984 28.0632 5.59041 26.7405 5.27533C26.5658 5.21805 26.4759 4.9731 26.4645 4.83594Z" fill="#96C34A"/>
<circle cx="7.80713" cy="7.3241" r="1.3197" fill="#D3D3D3"/>
<path d="M8.28101 6.44211C7.9521 6.9656 7.74404 6.99256 7.36146 6.84494C7.15337 6.79347 6.96542 6.69055 6.48885 6.69055C5.37743 6.69055 4.41479 7.63026 4.41479 8.89887C4.41479 10.1675 5.27394 11.0401 6.96542 11.0401H10.9995C12.6574 11.0401 13.8388 9.65834 13.8388 7.89875C13.8388 6.13916 12.2211 5.02588 10.7914 5.02588C9.36169 5.02588 8.60992 5.91861 8.28101 6.44211Z" fill="#E6E6E6"/>
<path d="M4.55108 24.4473C4.01586 25.8014 4.80256 26.0207 5.40228 26.0207H25.798C26.5275 26.0207 26.846 25.4273 26.4961 24.5352C26.3078 24.055 23.3307 16.6316 21.95 12.9836H9.57064C9.07641 12.9836 8.95873 13.3249 8.75869 13.8074C8.55864 14.2898 5.08629 23.0931 4.55108 24.4473Z" fill="#F9C23C"/>
<path d="M13.0369 23.9872C12.5798 22.8806 10.7214 18.2537 9.84937 16.0786V26.022H15.0215C13.8989 26.022 13.6082 25.3705 13.0369 23.9872Z" fill="#433B6B"/>
<path d="M9.86014 16.0808C9.6153 15.4772 9.11108 14.2292 9.05289 14.0663C9.04756 14.0514 9.04194 14.0359 9.03617 14.02C8.96317 13.8191 8.86403 13.5462 8.97263 13.3399V13.3357C8.90586 13.4506 8.84879 13.589 8.78499 13.7437C8.77636 13.7646 8.76761 13.7859 8.75869 13.8074C8.60086 14.188 6.40627 19.7477 5.2241 22.7426C4.90784 23.5438 4.66404 24.1615 4.55108 24.4473C4.01586 25.8014 4.80256 26.0207 5.40228 26.0207H9.54094V17.1328L9.86014 16.0808Z" fill="#ED9200"/>
<path d="M9.87403 26.0195V16.0728C8.67831 19.3834 6.45513 25.3648 6.3645 25.6055C6.27388 25.8461 6.14445 25.9818 6.09106 26.0195H9.87403Z" fill="#FF6723"/>
<path d="M16.3729 16.0056C15.5469 16.0056 15.2818 16.4834 15.539 17.1875C15.6293 17.4989 15.88 18.2858 16.1292 18.9574C16.4406 19.7969 16.892 20.0119 17.6367 20.0119H19.3428C20.1688 20.0119 20.2861 19.4313 20.1101 18.9574C19.9341 18.4835 19.6226 17.6304 19.3789 16.994C19.1352 16.3576 18.6612 16.0056 17.9165 16.0056H16.3729Z" fill="#FF822D"/>
</svg>

<svg xmlns="http://www.w3.org/2000/svg" width="32" height="32" fill="none"><path fill="#608842" d="M26.99 30H5.01A3.012 3.012 0 0 1 2 26.992v-7.994C2 17.9 2.89 17 4 17h24c1.1 0 2 .89 2 1.998v7.994A3.018 3.018 0 0 1 26.99 30Z"/><rect width="2.999" height="4.145" x="22.005" y="14.849" fill="#8C5543" rx=".2"/><path fill="#96C34A" d="M26.465 4.836a3.006 3.006 0 0 0-6.005.133c-.017.12-.048.232-.16.285a3.006 3.006 0 0 0-2.203 4.019c.002.01.005.02.01.032.06.144.02.315-.079.437a3.005 3.005 0 0 0 1.927 5.269H27.076a3.005 3.005 0 0 0 1.907-5.308c-.17-.177-.128-.414-.079-.587a3.33 3.33 0 0 0 .024-.077l.005-.014a.131.131 0 0 0 .014-.055 3.01 3.01 0 0 0-2.206-3.695c-.175-.057-.265-.302-.276-.44Z"/><circle cx="7.807" cy="7.324" r="1.32" fill="#D3D3D3"/><path fill="#E6E6E6" d="M8.281 6.442c-.329.524-.537.55-.92.403-.208-.052-.396-.154-.872-.154-1.112 0-2.074.94-2.074 2.208 0 1.269.859 2.141 2.55 2.141H11c1.658 0 2.84-1.382 2.84-3.141 0-1.76-1.618-2.873-3.048-2.873s-2.181.893-2.51 1.416Z"/><path fill="#F9C23C" d="M4.551 24.447c-.535 1.354.252 1.574.851 1.574h20.396c.73 0 1.048-.594.698-1.486-.188-.48-3.165-7.903-4.546-11.551H9.57c-.494 0-.611.34-.811.823-.2.483-3.673 9.286-4.208 10.64Z"/><path fill="#433B6B" d="M13.037 23.987c-.457-1.106-2.316-5.733-3.188-7.908v9.943h5.172c-1.122 0-1.413-.651-1.984-2.035Z"/><path fill="#ED9200" d="M9.86 16.08a163.644 163.644 0 0 1-.824-2.06c-.073-.2-.172-.474-.063-.68v-.004c-.067.115-.124.253-.188.408l-.026.063c-.158.381-2.353 5.94-3.535 8.936l-.673 1.704c-.535 1.354.252 1.574.851 1.574h4.139v-8.888l.32-1.052Z"/><path fill="#FF6723" d="M9.874 26.02v-9.947c-1.196 3.31-3.419 9.292-3.51 9.532-.09.241-.22.377-.273.415h3.783Z"/><path fill="#FF822D" d="M16.373 16.006c-.826 0-1.091.477-.834 1.181.09.312.341 1.099.59 1.77.312.84.763 1.055 1.508 1.055h1.706c.826 0 .943-.58.767-1.055-.176-.474-.487-1.327-.731-1.963-.244-.636-.718-.988-1.463-.988h-1.543Z"/></svg>
